X:1
T:Title
%%score 1 ( 2 3 )
L:1/8
Q:1/4=100
M:4/4
K:Ab
V:1 treble nm="Grand Piano, SOPRANO ALTO"
V:2 bass nm="Grand Piano, TENOR BASS"
V:3 bass 
V:1
 z4 z2 [CE][CE] | [CA][CA][CA][CA] [DF][CE][CE][CE] | [DF][FA][FA][DF] [CE]2 [EA][EA] | %3
w: 1.~I~ am~|free~ from~ con dem na tion~ since~ the~|Lord~ has~ made~ me~ whole,~ I~ have~|
 [Ec][Ec][Ec][Ec] [Ae][Ec][EA][EA] | [=DB][DB][DB][Dc] [EB]2 [CE][CE] | %5
w: ceased~ from~ my~ re pin ing~ since~ He~|filled~ with~ joy~ my~ soul;~ I~ am~|
 [CA][CA][CA][CA] [DF][CE][CE][CE] | [DF][FA][FA][DF] [CE]2 [EA][EA] | %7
w: ev er~ press ing~ on ward~ in~ the~|straight~ and~ nar row~ way,~ Sing ing,~|
 [Ec][Ec][Ec][Ec] [Ec][Ae][Q:1/4=100][EA][FB][Q:1/4=12] | [Ec]2 [DB]2 [CA]2 [Ec][Ec] | %9
w: glo ry,~ hal le lu jah,~ I~ am~|saved~ to day.~ * *|
 [Ae]2 [Af]2 [Ae]2 [EA][EB] | [Ac]2 [Ad]2 [Ac]2 EE | [EA][EA][EA][EA] [Ec][Ec][EA][EA] | %12
w: |||
 [=Dc]2 [DB]2 [EB]2 [EA][EB] | [Ec]2 [Ae]2 [Ec]2 [CE][CE] | [DF]2 [DA]2 [CA]2 [EA][EA] | %15
w: |||
 [Ec][Ec][Ec][Ec] [Ec][Ae][Q:1/4=100][EA][FB][Q:1/4=12] | [Ec]2 [DB]2 [CA]2 z2 |] %17
w: ||
V:2
 z4 z2 [A,,A,][A,,A,] | [A,,E,][A,,E,][A,,E,][A,,E,] [A,,A,][A,,A,][A,,A,][A,,A,] | %2
 [D,A,][D,D][D,D][D,A,] [A,,A,]2 [A,C][A,C] | A,A,A,A, [A,C]A,[C,A,][C,A,] | %4
 [B,,F,][B,,F,][B,,F,][B,,A,] [E,G,]2 [A,,A,][A,,A,] | %5
 [A,,E,][A,,E,][A,,E,][A,,E,] [A,,A,][A,,A,][A,,A,][A,,A,] | %6
 [D,A,][D,D][D,D][D,A,] [A,,A,]2 [A,C][A,C] | A,A,A,A, A,[A,C][C,A,][D,A,] | %8
 [E,A,]2 [E,G,]2 [A,,E,]2 A,A, | [A,C]2 [A,D]2 [A,C]2 [A,C][A,D] | %10
 [A,E]2 [A,F]2[K:bass] [A,E]2 [A,C][A,C] | [A,C][A,C][A,C][A,C] A,A,[C,A,][C,A,] | z4 G,2 z2 | %13
 A,2 [A,C]2 A,2 A,A, | [D,A,]2 [D,F,]2 [A,,E,]2 [A,C][A,C] | A,A,A,A, A,[A,C][C,A,][D,A,] | %16
 [E,A,]2 [E,G,]2 [A,,E,]2 z2 |] %17
V:3
 x8 | x8 | x8 | x8 | x8 | x8 | x8 | x8 | x8 | x8 | x4[K:bass] x4 | x8 | %12
 [B,,A,]2 [B,,A,]2 E,D,[C,A,][E,G,] | x8 | x8 | x8 | x8 |] %17

